static/logos/begin.svg

<svg width="192" height="57" viewBox="0 0 192 57" fill="none" xmlns="http://www.w3.org/2000/svg">
<path d="M137.734 38.0949C136.872 38.0949 136.018 37.925 135.222 37.5951C134.425 37.2652 133.702 36.7816 133.092 36.172C132.482 35.5624 131.999 34.8387 131.669 34.0422C131.339 33.2457 131.169 32.392 131.169 31.5299C131.169 30.6677 131.339 29.814 131.669 29.0175C131.999 28.221 132.482 27.4973 133.092 26.8877C133.702 26.2781 134.425 25.7945 135.222 25.4646C136.018 25.1347 136.872 24.9649 137.734 24.9649C139.475 24.9649 141.145 25.6565 142.376 26.8877C143.607 28.1189 144.299 29.7887 144.299 31.5299C144.299 33.271 143.607 34.9408 142.376 36.172C141.145 37.4032 139.475 38.0949 137.734 38.0949V38.0949ZM149.824 18.2089H145.921C145.067 18.2089 144.568 18.7789 144.288 19.4589C144.186 19.6989 143.908 19.8189 143.666 19.6989C141.818 18.8089 139.786 18.2789 137.734 18.2789C129.94 18.2789 123.719 25.0089 124.569 32.9789C125.203 38.9189 129.871 43.7689 135.782 44.6189C138.432 44.9989 140.942 44.5889 143.142 43.5989H143.152C143.692 43.3389 143.972 43.5289 144.002 43.9189C143.912 48.6589 141.482 50.7689 137.192 50.7689C134.842 50.7689 133.022 49.7109 132.012 48.0789C131.918 47.9279 131.787 47.8036 131.631 47.7178C131.475 47.632 131.3 47.5876 131.122 47.5889H126.001C125.455 47.5889 125.038 48.0989 125.181 48.6239C126.371 53.0789 130.876 56.8479 137.398 56.8479C147.025 56.8479 150.823 50.4479 150.823 43.4229V19.1999C150.823 19.069 150.797 18.9394 150.747 18.8185C150.697 18.6976 150.624 18.5877 150.531 18.4952C150.438 18.4027 150.328 18.3294 150.208 18.2794C150.087 18.2294 149.957 18.2037 149.826 18.2039" fill="#37322e"/>
<path d="M79.0909 38.0949C78.2288 38.0949 77.3751 37.9251 76.5786 37.5952C75.7821 37.2653 75.0584 36.7817 74.4487 36.1721C73.8391 35.5625 73.3556 34.8388 73.0256 34.0422C72.6957 33.2457 72.5259 32.3921 72.5259 31.5299C72.5259 30.6678 72.6957 29.8141 73.0256 29.0176C73.3556 28.2211 73.8391 27.4974 74.4487 26.8878C75.0584 26.2782 75.7821 25.7946 76.5786 25.4647C77.3751 25.1347 78.2288 24.9649 79.0909 24.9649C80.8321 24.9649 82.5019 25.6566 83.7331 26.8878C84.9642 28.119 85.6559 29.7888 85.6559 31.5299C85.6559 33.2711 84.9642 34.9409 83.7331 36.1721C82.5019 37.4033 80.8321 38.0949 79.0909 38.0949V38.0949ZM81.0429 18.4289C78.3993 18.0331 75.6978 18.4516 73.2979 19.6289C73.0779 19.7289 72.8209 19.5789 72.8209 19.3389V7.67993C72.8209 7.12993 72.3709 6.67993 71.8149 6.67993H67.0109C66.7438 6.68151 66.4881 6.78853 66.2995 6.97768C66.1109 7.16684 66.0047 7.42282 66.0039 7.68993V43.3549C66.0039 43.6201 66.1093 43.8745 66.2968 44.062C66.4843 44.2496 66.7387 44.3549 67.0039 44.3549H71.2509C71.8509 44.3549 72.3659 43.9929 72.5909 43.4749C72.6075 43.432 72.633 43.3931 72.6656 43.3607C72.6983 43.3283 72.7374 43.3032 72.7804 43.2869C72.8234 43.2705 72.8693 43.2635 72.9152 43.266C72.9612 43.2686 73.006 43.2809 73.0469 43.3019C74.9147 44.2692 76.9875 44.7734 79.0909 44.7719C86.8849 44.7719 93.1059 38.0399 92.2559 30.0739C91.6219 24.1339 86.9559 19.2839 81.0429 18.4289" fill="#37322e"/>
<path fill-rule="evenodd" clip-rule="evenodd" d="M190.207 23.0169C188.434 18.4139 183.377 16.7669 178.795 17.6589C177.542 17.8989 176.325 18.3389 175.211 18.9589C175.126 19.0089 174.946 19.1489 174.771 19.2689C174.593 19.3489 174.305 19.2689 174.228 19.0889C174.116 18.8259 173.929 18.6015 173.691 18.4433C173.453 18.2852 173.174 18.2002 172.888 18.1989H172.868C172.848 18.1989 172.832 18.1889 172.811 18.1889L168.649 18.1819C168.093 18.1819 167.642 18.6319 167.642 19.1919V43.3619C167.642 43.9019 168.082 44.3419 168.622 44.3419H173.592C173.852 44.3419 174.101 44.2386 174.285 44.0548C174.469 43.871 174.572 43.6218 174.572 43.3619V29.0799C174.572 26.1149 176.342 23.7739 179.362 23.7739C182.692 23.7739 184.102 26.0099 184.102 28.8719V43.3419C184.102 43.9039 184.562 44.3559 185.122 44.3559H190.001C190.561 44.3559 191.014 43.8959 191.014 43.3359V27.6799C191.014 26.0979 190.787 24.4969 190.217 23.0169H190.207ZM161.761 18.2099H156.841C156.287 18.2099 155.838 18.6579 155.838 19.2119V43.3519C155.838 43.9069 156.285 44.3559 156.838 44.3559H161.754C162.308 44.3559 162.757 43.9059 162.757 43.3529V19.2129C162.757 18.6579 162.307 18.2089 161.753 18.2089L161.761 18.2099ZM113.953 28.3189H102.661C102.403 28.3189 102.197 28.0989 102.237 27.8489C102.579 25.7589 105.167 23.7789 108.307 23.7789C111.449 23.7789 114.037 25.7589 114.377 27.8489C114.417 28.0889 114.213 28.3089 113.954 28.3089L113.953 28.3189ZM108.248 18.2089C100.433 18.2089 94.606 25.0189 95.083 32.5789C95.486 38.9589 100.695 44.1489 107.123 44.6889V44.6989C116.353 45.3689 119.858 39.7689 120.847 37.4089C120.894 37.2948 120.912 37.1707 120.9 37.0478C120.887 36.925 120.844 36.8072 120.775 36.705C120.705 36.6029 120.612 36.5196 120.502 36.4626C120.392 36.4057 120.27 36.3769 120.147 36.3789H114.697C114.379 36.3789 114.08 36.5089 113.842 36.7189C111.042 39.2089 107.202 38.5789 106.702 38.4829L106.652 38.4729C105.518 38.213 104.468 37.6746 103.594 36.9064C102.721 36.1381 102.054 35.1642 101.652 34.0729C101.562 33.8229 101.742 33.5629 102.002 33.5629H120.252C120.902 33.5629 121.432 33.0429 121.432 32.4079V31.1179C121.102 24.2279 116.072 18.2109 108.262 18.2109L108.248 18.2089ZM159.301 6.68286C157.131 6.68286 155.346 8.46586 155.346 10.6849C155.346 12.8069 157.131 14.5909 159.301 14.5909C161.519 14.5909 163.256 12.8109 163.256 10.6909C163.256 8.47086 161.519 6.68786 159.301 6.68786" fill="#37322e"/>
<path fill-rule="evenodd" clip-rule="evenodd" d="M23.6268 10.4699V0.935873C23.6272 0.805414 23.6002 0.676331 23.5475 0.556975C23.4948 0.43762 23.4177 0.33065 23.3211 0.242988C23.2245 0.155325 23.1105 0.0889234 22.9866 0.0480782C22.8627 0.00723294 22.7316 -0.00714562 22.6018 0.0058728C17.6918 0.555873 13.2018 2.48887 9.52183 5.40587C9.09183 5.74887 9.07183 6.39587 9.46183 6.78587L16.2318 13.5279C16.5518 13.8479 17.0518 13.8779 17.4318 13.6219C19.0676 12.5076 20.9164 11.7442 22.8618 11.3799C23.0783 11.3445 23.2752 11.2338 23.418 11.0673C23.5607 10.9008 23.64 10.6892 23.6418 10.4699" fill="#37322e"/>
<path fill-rule="evenodd" clip-rule="evenodd" d="M13.6677 33.4699C12.5496 31.8438 11.7833 30.0022 11.4177 28.0629C11.3807 27.8469 11.269 27.6508 11.1022 27.5088C10.9353 27.3668 10.7239 27.2879 10.5047 27.2859H0.940747C0.390747 27.2859 -0.0552529 27.7619 0.00674708 28.3059C0.558747 33.2059 2.49675 37.6839 5.42675 41.3459C5.76675 41.7739 6.41875 41.7959 6.80675 41.4089L13.5727 34.6589C13.8947 34.3389 13.9247 33.8389 13.6677 33.4589" fill="#37322e"/>
<path fill-rule="evenodd" clip-rule="evenodd" d="M41.48 5.40797C37.7148 2.4131 33.1813 0.540774 28.4 0.00597366C28.2701 -0.00719418 28.1389 0.00707281 28.0149 0.0478502C27.8909 0.0886277 27.7768 0.155006 27.6801 0.242684C27.5834 0.330362 27.5061 0.437383 27.4534 0.556815C27.4007 0.676246 27.3736 0.805422 27.374 0.935974V10.47C27.374 10.924 27.707 11.297 28.154 11.38C30.0986 11.7429 31.9464 12.5064 33.58 13.622C33.7593 13.7486 33.9772 13.8086 34.196 13.7914C34.4148 13.7742 34.6207 13.681 34.778 13.528L41.543 6.78497C41.6358 6.69381 41.7084 6.58409 41.7559 6.46299C41.8034 6.34188 41.8248 6.21212 41.8188 6.08217C41.8128 5.95222 41.7794 5.825 41.7208 5.70883C41.6623 5.59266 41.5799 5.49014 41.479 5.40797" fill="#37322e"/>
<path fill-rule="evenodd" clip-rule="evenodd" d="M24.8433 28.716L9.45727 44.053C9.36459 44.144 9.29215 44.2536 9.24466 44.3744C9.19716 44.4953 9.17569 44.6249 9.18163 44.7546C9.18758 44.8844 9.22081 45.0114 9.27916 45.1274C9.33751 45.2435 9.41966 45.3459 9.52027 45.428C14.061 49.0437 19.6959 51.0085 25.5003 51C31.3047 51.0085 36.9396 49.0437 41.4803 45.428C41.5809 45.346 41.6632 45.2436 41.7216 45.1276C41.7801 45.0116 41.8134 44.8846 41.8194 44.7548C41.8255 44.6251 41.8041 44.4955 41.7567 44.3746C41.7093 44.2537 41.6369 44.1441 41.5443 44.053L26.1583 28.716C25.9836 28.5422 25.7472 28.4446 25.5008 28.4446C25.2543 28.4446 25.0179 28.5422 24.8433 28.716" fill="#37322e"/>
<path fill-rule="evenodd" clip-rule="evenodd" d="M13.5704 16.1699L6.80744 9.42694C6.41744 9.03994 5.76744 9.06294 5.42544 9.49094C2.42491 13.2389 0.545892 17.7593 0.00544419 22.5299C-0.0545558 23.0749 0.389444 23.5519 0.939444 23.5519H10.4994C10.9494 23.5519 11.3294 23.2199 11.4094 22.7739C11.7732 20.8338 12.5397 18.9915 13.6594 17.3659C13.7837 17.1862 13.8417 16.9688 13.8235 16.751C13.8052 16.5332 13.7119 16.3285 13.5594 16.1719L13.5704 16.1699ZM40.4894 23.5499H50.0494C50.5994 23.5499 51.0394 23.0729 50.9794 22.5279C50.4431 17.7579 48.5651 13.2377 45.5634 9.49194C45.2204 9.06194 44.5704 9.03994 44.1834 9.42794L37.4234 16.1699C37.2692 16.3256 37.1748 16.5308 37.1571 16.7492C37.1393 16.9677 37.1993 17.1854 37.3264 17.3639C38.4431 18.9912 39.2093 20.8328 39.5764 22.7719C39.6122 22.988 39.7231 23.1845 39.8896 23.3268C40.0561 23.4692 40.2674 23.5482 40.4864 23.5499" fill="#37322e"/>
<path fill-rule="evenodd" clip-rule="evenodd" d="M39.5839 28.0631C39.2204 30.0039 38.4539 31.8468 37.3339 33.4731C37.2073 33.6515 37.1476 33.8689 37.1651 34.087C37.1827 34.3051 37.2764 34.5101 37.4299 34.6661L44.1899 41.4091C44.5799 41.7891 45.2299 41.7691 45.5699 41.3391C48.5667 37.5884 50.4452 33.0689 50.9899 28.2991C51.0499 27.7491 50.5999 27.2791 50.0499 27.2791H40.4899C40.0299 27.2791 39.6599 27.6091 39.5699 28.0491" fill="#37322e"/>
</svg>

<svg fill="none" xmlns="http://www.w3.org/2000/svg" viewBox="0 0 192 57"><path d="M137.73 38.1a6.56 6.56 0 110-13.13 6.56 6.56 0 010 13.12zm12.1-19.9h-3.9c-.86 0-1.36.58-1.64 1.26a.46.46 0 01-.62.24 13.75 13.75 0 00-5.94-1.42 13.25 13.25 0 105.41 25.32h.01c.54-.26.82-.07.85.32-.09 4.74-2.52 6.85-6.8 6.85a5.87 5.87 0 01-5.19-2.7 1.04 1.04 0 00-.89-.48H126a.83.83 0 00-.82 1.03c1.2 4.46 5.7 8.23 12.22 8.23 9.63 0 13.42-6.4 13.42-13.43V19.2a1 1 0 00-1-1M79.1 38.1a6.57 6.57 0 110-13.14 6.57 6.57 0 010 13.13zm1.94-19.67c-2.64-.4-5.34.02-7.74 1.2-.22.1-.48-.05-.48-.3V7.69a1 1 0 00-1-1h-4.8A1.01 1.01 0 0066 7.69v35.66a1 1 0 001 1h4.25c.6 0 1.12-.36 1.34-.88a.33.33 0 01.46-.17 13.25 13.25 0 108-24.87" fill="#37322e"/><path fill-rule="evenodd" clip-rule="evenodd" d="M190.2 23.02c-1.77-4.6-6.82-6.25-11.4-5.36-1.26.24-2.48.68-3.59 1.3-.08.05-.26.19-.44.3-.18.09-.47 0-.54-.17a1.46 1.46 0 00-1.34-.9h-4.24a1 1 0 00-1 1v24.17c0 .54.43.98.97.98h4.97a.98.98 0 00.98-.98V29.08c0-2.97 1.77-5.3 4.8-5.3 3.32 0 4.73 2.23 4.73 5.1v14.46c0 .56.46 1.02 1.02 1.02H190c.56 0 1.01-.46 1.01-1.02V27.68a13 13 0 00-.8-4.66zm-28.44-4.81h-4.92a1 1 0 00-1 1v24.14a1 1 0 001 1h4.91a1 1 0 001-1V19.21a1 1 0 00-1-1h.01zm-47.8 10.1h-11.3c-.26 0-.46-.21-.42-.46.34-2.1 2.93-4.07 6.07-4.07s5.73 1.98 6.07 4.07c.04.24-.17.46-.43.46zm-5.71-10.1c-7.82 0-13.64 6.8-13.17 14.37a13.16 13.16 0 0012.04 12.1v.02c9.23.67 12.74-4.93 13.73-7.3a.76.76 0 00-.07-.7.75.75 0 00-.63-.32h-5.45c-.32 0-.62.13-.86.34-2.8 2.49-6.64 1.86-7.14 1.76h-.05a7 7 0 01-5-4.4.38.38 0 01.35-.52h18.25c.65 0 1.18-.52 1.18-1.15v-1.3c-.33-6.88-5.36-12.9-13.17-12.9h-.01zM159.3 6.68a3.98 3.98 0 00-3.95 4 3.96 3.96 0 007.9.01c0-2.22-1.73-4-3.95-4M23.63 10.47V.94A.93.93 0 0022.6 0c-4.9.55-9.4 2.48-13.08 5.4a.93.93 0 00-.06 1.38l6.77 6.74c.32.32.82.35 1.2.1a14.33 14.33 0 015.43-2.25.93.93 0 00.78-.91M13.67 33.47a14.18 14.18 0 01-2.25-5.4.94.94 0 00-.92-.78H.94c-.55 0-1 .47-.93 1.02.55 4.9 2.49 9.37 5.42 13.04.34.42.99.45 1.38.06l6.76-6.75a.94.94 0 00.1-1.2M41.48 5.4C37.71 2.42 33.18.55 28.4 0a.93.93 0 00-1.03.94v9.53c0 .45.34.83.78.91 1.95.36 3.8 1.13 5.43 2.24a.94.94 0 001.2-.1l6.76-6.74a.92.92 0 00-.06-1.37M24.84 28.72L9.46 44.05a.92.92 0 00.06 1.38A25.6 25.6 0 0025.5 51a25.6 25.6 0 0015.98-5.57.92.92 0 00.06-1.38L26.16 28.72a.93.93 0 00-1.32 0M13.57 16.17L6.81 9.43a.93.93 0 00-1.38.06C2.43 13.24.55 17.76 0 22.53a.93.93 0 00.93 1.02h9.56c.45 0 .83-.33.9-.78a14.12 14.12 0 012.26-5.4.94.94 0 00-.1-1.2h.01zm26.92 7.38h9.56c.55 0 .99-.48.93-1.02a25.38 25.38 0 00-5.42-13.04.93.93 0 00-1.38-.06l-6.76 6.74a.93.93 0 00-.1 1.2 14.24 14.24 0 012.26 5.4.93.93 0 00.9.78M39.58 28.06a14.12 14.12 0 01-2.25 5.41.93.93 0 00.1 1.2l6.76 6.74a.94.94 0 001.38-.07c3-3.75 4.88-8.27 5.42-13.04a.93.93 0 00-.94-1.02h-9.56a.94.94 0 00-.92.77" fill="#37322e"/></svg>
